home/.icons/Gruvbox-Plus-Dark/apps/16/box.svg

<svg width="16" height="16" version="1.1" xmlns="http://www.w3.org/2000/svg">
  <defs>
    <style type="text/css" id="current-color-scheme">.ColorScheme-Text { color:#ebdbb2; } .ColorScheme-Highlight { color:#458588; }</style>
  </defs>
  <path class="ColorScheme-Text" fill="currentColor" d="m11.67 6.524c-0.15 0-0.3 0.057-0.416 0.173-0.23 0.23-0.23 0.601 0 0.831l1.456 1.456-1.456 1.455c-0.23 0.23-0.23 0.602 0 0.833 0.231 0.23 0.603 0.23 0.833 0l1.455-1.456 1.456 1.456c0.23 0.23 0.601 0.23 0.831 0 0.231-0.231 0.231-0.603 0-0.833l-1.455-1.455 1.455-1.456c0.231-0.23 0.231-0.601 0-0.831-0.23-0.231-0.601-0.231-0.831 0l-1.455 1.455-1.456-1.455c-0.115-0.115-0.266-0.173-0.417-0.173zm-3.664 0.984c0.816 0 1.477 0.661 1.477 1.476s-0.661 1.476-1.477 1.476c-0.815 0-1.476-0.661-1.476-1.476s0.661-1.476 1.476-1.476zm0-0.984c-1.358 0-2.46 1.101-2.46 2.46s1.102 2.46 2.46 2.46c1.359 0 2.461-1.101 2.461-2.46s-1.102-2.46-2.461-2.46zm-5.535 0.984c0.815 0 1.476 0.661 1.476 1.476s-0.661 1.476-1.476 1.476-1.476-0.661-1.476-1.476 0.661-1.476 1.476-1.476zm-1.968-2.952c-0.273 0-0.492 0.219-0.492 0.492-0.035 1.297 0.046 2.667 0 3.936 0 1.359 1.101 2.46 2.46 2.46s2.46-1.101 2.46-2.46-1.101-2.46-2.46-2.46c-0.533 1e-3 -1.051 0.175-1.476 0.496v-1.972c0-0.273-0.219-0.492-0.492-0.492z"/>
</svg>

<svg xmlns="http://www.w3.org/2000/svg" style="isolation:isolate" width="16" height="16" viewBox="0 0 16 16">
 <defs>
  <style id="current-color-scheme" type="text/css">
   .ColorScheme-Text { color:#ebdbb2; } .ColorScheme-Highlight { color:#458588; }
  </style>
  <linearGradient id="arrongin" x1="0%" x2="0%" y1="0%" y2="100%">
   <stop offset="0%" style="stop-color:#d79921; stop-opacity:1"/>
   <stop offset="100%" style="stop-color:#b57614; stop-opacity:1"/>
  </linearGradient>
  <linearGradient id="aurora" x1="0%" x2="0%" y1="0%" y2="100%">
   <stop offset="0%" style="stop-color:#83a598; stop-opacity:1"/>
   <stop offset="100%" style="stop-color:#b16286; stop-opacity:1"/>
  </linearGradient>
  <linearGradient id="fitdance" x1="0%" x2="0%" y1="0%" y2="100%">
   <stop offset="0%" style="stop-color:#8ec07c; stop-opacity:1"/>
   <stop offset="100%" style="stop-color:#458588; stop-opacity:1"/>
  </linearGradient>
  <linearGradient id="oomox" x1="0%" x2="0%" y1="0%" y2="100%">
   <stop offset="0%" style="stop-color:#458588; stop-opacity:1"/>
   <stop offset="100%" style="stop-color:#928374; stop-opacity:1"/>
  </linearGradient>
  <linearGradient id="rainblue" x1="0%" x2="0%" y1="0%" y2="100%">
   <stop offset="0%" style="stop-color:#b8bb26; stop-opacity:1"/>
   <stop offset="100%" style="stop-color:#076678; stop-opacity:1"/>
  </linearGradient>
  <linearGradient id="sunrise" x1="0%" x2="0%" y1="0%" y2="100%">
   <stop offset="0%" style="stop-color: #fe8019; stop-opacity:1"/>
   <stop offset="100%" style="stop-color: #fabd2f; stop-opacity:1"/>
  </linearGradient>
  <linearGradient id="telinkrin" x1="0%" x2="0%" y1="0%" y2="100%">
   <stop offset="0%" style="stop-color: #83a598; stop-opacity:1"/>
   <stop offset="100%" style="stop-color: #83a598; stop-opacity:1"/>
  </linearGradient>
  <linearGradient id="60spsycho" x1="0%" x2="0%" y1="0%" y2="100%">
   <stop offset="0%" style="stop-color: #fb4934; stop-opacity:1"/>
   <stop offset="25%" style="stop-color: #fabd2f; stop-opacity:1"/>
   <stop offset="50%" style="stop-color: #fe8019; stop-opacity:1"/>
   <stop offset="100%" style="stop-color: #689d6a; stop-opacity:1"/>
  </linearGradient>
  <linearGradient id="90ssummer" x1="0%" x2="0%" y1="0%" y2="100%">
   <stop offset="0%" style="stop-color: #b16286; stop-opacity:1"/>
   <stop offset="20%" style="stop-color: #8ec07c; stop-opacity:1"/>
   <stop offset="50%" style="stop-color: #fabd2f; stop-opacity:1"/>
   <stop offset="100%" style="stop-color: #458588; stop-opacity:1"/>
  </linearGradient>
  <linearGradient id="cyberneon" x1="0%" x2="0%" y1="0%" y2="100%">
    <stop offset="0" style="stop-color:#83a598; stop-opacity:1"/>
    <stop offset="1" style="stop-color:#b16286; stop-opacity:1"/>
  </linearGradient>
 </defs>
 <path style="fill:currentColor" class="ColorScheme-Text" fill-rule="evenodd" d="M 11.668 6.524 C 11.518 6.524 11.368 6.581 11.252 6.697 C 11.022 6.927 11.022 7.298 11.252 7.528 L 12.708 8.984 L 11.252 10.439 C 11.022 10.669 11.022 11.041 11.252 11.272 C 11.483 11.502 11.855 11.502 12.085 11.272 L 13.54 9.816 L 14.996 11.272 C 15.226 11.502 15.597 11.502 15.827 11.272 C 16.058 11.041 16.058 10.669 15.827 10.439 L 14.372 8.984 L 15.827 7.528 C 16.058 7.298 16.058 6.927 15.827 6.697 C 15.597 6.466 15.226 6.466 14.996 6.697 L 13.541 8.152 L 12.085 6.697 C 11.97 6.582 11.819 6.524 11.668 6.524 L 11.668 6.524 L 11.668 6.524 Z M 8.004 7.508 C 8.82 7.508 9.481 8.169 9.481 8.984 C 9.481 9.799 8.82 10.46 8.004 10.46 C 7.189 10.46 6.528 9.799 6.528 8.984 C 6.528 8.169 7.189 7.508 8.004 7.508 L 8.004 7.508 L 8.004 7.508 Z M 8.004 6.524 C 6.646 6.524 5.544 7.625 5.544 8.984 C 5.544 10.343 6.646 11.444 8.004 11.444 C 9.363 11.444 10.465 10.343 10.465 8.984 C 10.465 7.625 9.363 6.524 8.004 6.524 L 8.004 6.524 L 8.004 6.524 Z M 2.469 7.508 C 3.284 7.508 3.945 8.169 3.945 8.984 C 3.945 9.799 3.284 10.46 2.469 10.46 C 1.654 10.46 0.993 9.799 0.993 8.984 C 0.993 8.169 1.654 7.508 2.469 7.508 L 2.469 7.508 Z M 0.501 4.556 C 0.228 4.556 0.009 4.775 0.009 5.048 C -0.026 6.345 0.055 7.715 0.009 8.984 C 0.009 10.343 1.11 11.444 2.469 11.444 C 3.828 11.444 4.929 10.343 4.929 8.984 C 4.929 7.625 3.828 6.524 2.469 6.524 C 1.936 6.525 1.418 6.699 0.993 7.02 L 0.993 5.048 C 0.993 4.775 0.774 4.556 0.501 4.556 L 0.501 4.556 L 0.501 4.556 Z"/>
</svg>
